svg/UnitedNationsOCHA-Humanitarian/product_type_calendar_icon.svg

<svg xmlns="http://www.w3.org/2000/svg" viewBox="0 0 32 32" enable-background="new 0 0 32 32"><path fill="#407cca" d="m4 4v24h24v-24h-24m22.359 22.359h-20.718v-16.247h20.719v16.247m-13-3.01h-2.026v-7.638c-.739.693-1.612 1.203-2.619 1.534v-1.837c.528-.175 1.104-.5 1.725-.984.619-.481 1.043-1.047 1.276-1.691h1.644v10.616m3.074-2.448l1.961-.213c.049.397.175.694.375.885.201.193.469.291.802.291.417 0 .774-.194 1.068-.578.294-.385.481-1.182.563-2.397-.511.594-1.149.888-1.914.888-.831 0-1.548-.318-2.151-.963-.604-.641-.905-1.475-.905-2.506 0-1.072.317-1.935.957-2.591.638-.656 1.445-.984 2.431-.984 1.075 0 1.955.413 2.641 1.244.689.828 1.033 2.193 1.033 4.091 0 1.934-.357 3.331-1.073 4.184-.718.856-1.651 1.285-2.802 1.285-.825 0-1.494-.219-2-.66-.511-.442-.838-1.098-.981-1.976m4.588-4.425c0-.656-.15-1.163-.45-1.522-.304-.363-.648-.544-1.044-.544-.375 0-.686.15-.935.444-.245.297-.372.781-.372 1.453 0 .685.137 1.185.406 1.506.27.319.604.479 1.01.479.389 0 .716-.153.982-.459.27-.31.403-.76.403-1.357"/></svg>

<?xml version="1.0" encoding="utf-8"?>
<!-- Generator: Adobe Illustrator 16.0.3, SVG Export Plug-In . SVG Version: 6.00 Build 0)  -->
<!DOCTYPE svg PUBLIC "-//W3C//DTD SVG 1.1//EN" "http://www.w3.org/Graphics/SVG/1.1/DTD/svg11.dtd">
<svg version="1.1" id="Layer_1" xmlns="http://www.w3.org/2000/svg" xmlns:xlink="http://www.w3.org/1999/xlink" x="0px" y="0px"
	 width="32px" height="32px" viewBox="0 0 32 32" enable-background="new 0 0 32 32" xml:space="preserve">
<path fill="#407CCA" d="M4,4v24h24V4H4z M26.359,26.359H5.641V10.112h20.719V26.359z M13.356,23.354H11.33v-7.638
	c-0.739,0.693-1.612,1.203-2.619,1.534v-1.837c0.528-0.175,1.104-0.5,1.725-0.984c0.619-0.481,1.043-1.047,1.276-1.691h1.644V23.354
	z M16.43,20.906l1.961-0.213c0.049,0.397,0.175,0.694,0.375,0.885c0.201,0.193,0.469,0.291,0.802,0.291
	c0.417,0,0.774-0.194,1.068-0.578c0.294-0.385,0.481-1.182,0.563-2.397c-0.511,0.594-1.149,0.888-1.914,0.888
	c-0.831,0-1.548-0.318-2.151-0.963c-0.604-0.641-0.905-1.475-0.905-2.506c0-1.072,0.317-1.935,0.957-2.591
	c0.638-0.656,1.445-0.984,2.431-0.984c1.075,0,1.955,0.413,2.641,1.244c0.689,0.828,1.033,2.193,1.033,4.091
	c0,1.934-0.357,3.331-1.073,4.184c-0.718,0.856-1.651,1.285-2.802,1.285c-0.825,0-1.494-0.219-2.005-0.66
	C16.9,22.44,16.573,21.784,16.43,20.906z M21.018,16.481c0-0.656-0.15-1.163-0.45-1.522c-0.304-0.363-0.648-0.544-1.044-0.544
	c-0.375,0-0.686,0.15-0.935,0.444c-0.245,0.297-0.372,0.781-0.372,1.453c0,0.685,0.137,1.185,0.406,1.506
	c0.27,0.319,0.604,0.479,1.01,0.479c0.389,0,0.716-0.153,0.982-0.459C20.885,17.528,21.018,17.078,21.018,16.481z"/>
</svg>
